X: 230
T: Mixing the punch
C: anon.
O: Ireland
B: Francis O'Neill: "The Dance Music of Ireland" (1907) no. 230
R: Double jig
Z: Transcribed by Frank Nordberg - http://www.musicaviva.com
F: http://www.musicaviva.com/abc/tunes/ireland/oneill-1001/oneill-1001-023
0.abc
M: 6/8
L: 1/8
K: D
(A/G/)|FED dfe|dAF GFE|GBG edB|ABA GFE|FAD GBE|Ace dAG|FDG EAE|DED D2:|
|:(3A/B/c/|d2d def|ABA Fdc|Bcd efg|d2f ecA|FED def|efg ecA|FDG ECE|DED D2
:|
W:
W:
W: From Musica Viva - http://www.musicaviva.com
W: the Internet center for free sheet music downloads.


